assets/Bus/Flat/bus_flat.svg

<svg xmlns="http://www.w3.org/2000/svg" width="32" height="32" fill="none"><path fill="#E6E6E6" d="M30 9.94V20l-14 2-14-2V9.94C2 8.87 2.87 8 3.94 8h24.12C29.14 8 30 8.87 30 9.94Z"/><path fill="#26C9FC" d="M6 18.14v-7.28c0-.47-.42-.86-.93-.86H2v9h3.07c.51 0 .93-.39.93-.86ZM8.93 10h4.15c.51 0 .92.39.93.86v7.27c0 .47-.42.86-.93.86H8.93c-.51 0-.93-.38-.93-.86v-7.27c0-.47.42-.86.93-.86Zm11.15 0h-4.15c-.51 0-.93.39-.93.86v7.27c0 .48.42.86.93.86h4.15c.51 0 .93-.39.93-.86v-7.27c-.01-.47-.42-.86-.93-.86Zm2.85 0h4.15c.51 0 .92.39.93.86v7.27c0 .47-.42.86-.93.86h-4.15c-.51 0-.93-.38-.93-.86v-7.27c0-.47.42-.86.93-.86Z"/><path fill="#FFB02E" d="M30 20v5.06c0 1.07-.87 1.94-1.94 1.94H3.94C2.87 27 2 26.13 2 25.06V20h28Z"/><path fill="#212121" d="M2 10h3.07c.51 0 .93.39.93.86V12H2v-2Zm4.52 7h-.39C5.51 17 5 16.5 5 15.87v-1.74c0-.62.51-1.13 1.13-1.13h.39c.26 0 .48.21.48.48v3.04c0 .26-.21.48-.48.48Zm5.51 9.5a3.5 3.5 0 1 1-7 0 3.5 3.5 0 0 1 7 0ZM23.51 30a3.5 3.5 0 1 0 0-7 3.5 3.5 0 0 0 0 7Z"/><path fill="#F92F60" d="M30 21h-.5c-.85 0-1.54.71-1.5 1.57.04.81.74 1.43 1.55 1.43H30v-3Z"/><path fill="#FFF478" d="M2.91 25H2v-4h.91c.6 0 1.09.49 1.09 1.09v1.82c0 .6-.48 1.09-1.09 1.09Z"/><path fill="#D3D3D3" d="M10 26.5a1.5 1.5 0 1 1-3 0 1.5 1.5 0 0 1 3 0Zm15 0a1.5 1.5 0 1 1-3 0 1.5 1.5 0 0 1 3 0Z"/></svg>

<svg width="32" height="32" viewBox="0 0 32 32" fill="none" xmlns="http://www.w3.org/2000/svg">
<path d="M30 9.94V20L16 22L2 20V9.94C2 8.87 2.87 8 3.94 8H28.06C29.14 8 30 8.87 30 9.94Z" fill="#E6E6E6"/>
<path d="M6 18.14V10.86C6 10.39 5.58 10 5.07 10H2V19H5.07C5.58 19 6 18.61 6 18.14ZM8.93 10H13.08C13.59 10 14 10.39 14.01 10.86V18.13C14.01 18.6 13.59 18.99 13.08 18.99H8.93C8.42 18.99 8 18.61 8 18.13V10.86C8 10.39 8.42 10 8.93 10ZM20.08 10H15.93C15.42 10 15 10.39 15 10.86V18.13C15 18.61 15.42 18.99 15.93 18.99H20.08C20.59 18.99 21.01 18.6 21.01 18.13V10.86C21 10.39 20.59 10 20.08 10ZM22.93 10H27.08C27.59 10 28 10.39 28.01 10.86V18.13C28.01 18.6 27.59 18.99 27.08 18.99H22.93C22.42 18.99 22 18.61 22 18.13V10.86C22 10.39 22.42 10 22.93 10Z" fill="#26C9FC"/>
<path d="M30 20V25.06C30 26.13 29.13 27 28.06 27H3.94C2.87 27 2 26.13 2 25.06C2 23.5888 2 21.6941 2 20H30Z" fill="#FFB02E"/>
<path d="M2 10H5.07C5.58 10 6 10.39 6 10.86V11V12H2V11V10ZM6.52 17H6.13C5.51 17 5 16.5 5 15.87V14.13C5 13.51 5.51 13 6.13 13H6.52C6.78 13 7 13.21 7 13.48V16.52C7 16.78 6.79 17 6.52 17ZM12.03 26.5C12.03 28.433 10.463 30 8.53 30C6.597 30 5.03 28.433 5.03 26.5C5.03 24.567 6.597 23 8.53 23C10.463 23 12.03 24.567 12.03 26.5ZM23.51 30C25.443 30 27.01 28.433 27.01 26.5C27.01 24.567 25.443 23 23.51 23C21.577 23 20.01 24.567 20.01 26.5C20.01 28.433 21.577 30 23.51 30Z" fill="#212121"/>
<path d="M30 21H29.5C28.65 21 27.96 21.71 28 22.57C28.04 23.38 28.74 24 29.55 24H30V21Z" fill="#F92F60"/>
<path d="M2.91 25H2V21H2.91C3.51 21 4 21.49 4 22.09V23.91C4 24.51 3.52 25 2.91 25Z" fill="#FFF478"/>
<path d="M10 26.5C10 27.3284 9.32843 28 8.5 28C7.67157 28 7 27.3284 7 26.5C7 25.6716 7.67157 25 8.5 25C9.32843 25 10 25.6716 10 26.5ZM25 26.5C25 27.3284 24.3284 28 23.5 28C22.6716 28 22 27.3284 22 26.5C22 25.6716 22.6716 25 23.5 25C24.3284 25 25 25.6716 25 26.5Z" fill="#D3D3D3"/>
</svg>
